packages/ui-icons/osui-icons/raw/cross.svg

<svg xmlns="http://www.w3.org/2000/svg"  viewBox="0 0 1024 1024">
  <path fill="#333" fill-rule="evenodd" d="M224.266375,171.660144 L512.035431,459.489649 L800.555426,170.958012 C815.068539,156.444899 838.599299,156.444899 853.112631,170.95823 C866.296188,184.141788 867.625478,205.014355 856.451716,219.695658 L852.410717,224.266375 L564.581212,512.035431 L853.112849,800.555426 C866.296188,813.738764 867.625478,834.611331 856.451716,849.292635 L852.410717,853.863352 C839.929074,866.296188 819.056507,867.625478 804.375203,856.451716 L799.804486,852.410717 L512.035431,564.581212 L223.515435,853.112849 C210.332097,866.296188 189.45953,867.625478 174.778226,856.451716 L170.207509,852.410717 C157.774673,839.929074 156.445383,819.056507 167.619145,804.375203 L171.660144,799.804486 L459.489649,512.035431 L170.958012,223.515435 C157.774673,210.332097 156.445383,189.45953 167.619145,174.778226 L171.660144,170.207509 C184.141788,157.774673 205.014355,156.445383 219.695658,167.619145 L224.266375,171.660144 Z"/>
</svg>

<?xml version="1.0" standalone="no"?><!DOCTYPE svg PUBLIC "-//W3C//DTD SVG 1.1//EN" "http://www.w3.org/Graphics/SVG/1.1/DTD/svg11.dtd"><svg t="1597914423304" class="icon" viewBox="0 0 1024 1024" version="1.1" xmlns="http://www.w3.org/2000/svg" p-id="14662" width="16" height="16" xmlns:xlink="http://www.w3.org/1999/xlink"><defs><style type="text/css"></style></defs><path d="M224.256 171.648L512.064 459.52l288.512-288.576a37.12 37.12 0 0 1 55.872 48.768l-4.032 4.544-287.808 287.808 288.512 288.512a37.12 37.12 0 0 1 3.328 48.704l-4.032 4.608a36.992 36.992 0 0 1-48 2.56l-4.608-4.032L512 564.608 223.488 853.12a37.12 37.12 0 0 1-48.704 3.328l-4.608-4.032a36.992 36.992 0 0 1-2.56-48l4.032-4.608L459.52 512 170.88 223.488a37.12 37.12 0 0 1-3.328-48.704l4.032-4.608a36.992 36.992 0 0 1 48-2.56l4.608 4.032z" p-id="14663"></path></svg>
